X: 11351
T: Earl Of Hyndford, The
R: reel
M: 4/4
K: Cdorian
|:{G,}C2EG cdec|BGFE DB,FD|{G,}C2EG cdec|BGFD ECCE|
G,CEG cdec|BGFE DB,FD|ECFD GE_AF|1 GEFD ECCE:|2 GEFD ECCB||
|:cGEc Ggec|Bbfg dfBd|ecge dBGc|BGFD ECCB|
cGEc Ggec|BdFB DFB,D|ECFD GE_AF|1 GEFD ECCB:|2 GEFD ECCE||

